tests/lcmsNET.Tests/Resources/Aqua.cube
# Created by Adobe Lightroom plugin Export LUT (1.18.0)
# www.johnrellis.com/lightroom/exportlut.htm
# Preset: Aqua
# Color profile: /Library/Application Support/Adobe/Color/Profiles/Recommended/AdobeRGB1998.icc
LUT_3D_SIZE 5
DOMAIN_MIN 0.000000 0.000000 0.000000
DOMAIN_MAX 0.903226 0.903226 0.903226
0.000000 0.000000 0.000000
0.117891 0.000000 0.007294
0.508019 0.000000 0.000000
0.718563 0.000000 0.000000
0.874357 0.142092 0.000000
0.000000 0.095674 0.003510
0.101595 0.104280 0.009949
0.473396 0.115328 0.000000
0.707881 0.179782 0.000000
0.876158 0.262882 0.010559
0.000000 0.461524 0.000000
0.106325 0.459113 0.000000
0.492714 0.493660 0.000000
0.708003 0.468360 0.000000
0.870085 0.464179 0.103243
0.000000 0.698024 0.000000
0.154543 0.699702 0.000000
0.452857 0.696193 0.000000
0.689021 0.691676 0.000000
0.855467 0.661616 0.202029
0.169192 0.856107 0.198520
0.269627 0.854612 0.205814
0.458778 0.850492 0.233921
0.657191 0.847257 0.294316
0.843442 0.842618 0.369787
0.000000 0.000000 0.108827
0.100008 0.000000 0.099611
0.488197 0.000000 0.102419
0.710018 0.000000 0.080720
0.869322 0.167300 0.149142
0.000000 0.096956 0.103090
0.106294 0.111208 0.102419
0.481025 0.148379 0.078828
0.704646 0.201816 0.076326
0.867338 0.271214 0.163668
0.000000 0.461646 0.133364
0.023896 0.470649 0.000000
0.489082 0.491279 0.000000
0.698909 0.464515 0.117098
0.861173 0.469368 0.223880
0.000000 0.696345 0.133791
0.121767 0.697230 0.129091
0.445777 0.692897 0.154452
0.682002 0.688319 0.201358
0.847257 0.664057 0.307317
0.209689 0.852323 0.315770
0.294499 0.851591 0.322210
0.470008 0.848814 0.342412
0.658717 0.845487 0.380865
0.838987 0.841489 0.433326
0.000000 0.000000 0.489265
0.000000 0.000000 0.481849
0.468635 0.000000 0.484413
0.696834 0.000000 0.433417
0.848875 0.356603 0.487221
0.000000 0.192599 0.495521
0.000000 0.124514 0.489540
0.472114 0.074769 0.486976
0.689967 0.258457 0.448157
0.845609 0.427192 0.507530
0.000000 0.487434 0.489021
0.000000 0.491035 0.487648
0.467781 0.503929 0.487007
0.673854 0.518242 0.498146
0.842588 0.543145 0.517235
0.000000 0.702632 0.457923
0.096986 0.702022 0.461891
0.469520 0.694087 0.498848
0.669215 0.693843 0.507866
0.833310 0.692073 0.540063
0.211704 0.854002 0.492927
0.322179 0.851774 0.509606
0.499580 0.847166 0.539269
0.664393 0.845853 0.551293
0.832547 0.843534 0.568597
0.000000 0.000000 0.708217
0.000000 0.000000 0.707820
0.380438 0.000000 0.705592
0.669093 0.128908 0.700862
0.837308 0.403815 0.676204
0.000000 0.197787 0.707332
0.000000 0.167025 0.705928
0.375677 0.194186 0.701106
0.665309 0.300511 0.697902
0.834562 0.465980 0.684260
0.000000 0.456397 0.699672
0.000000 0.457557 0.698451
0.435218 0.508049 0.696559
0.658228 0.539849 0.694575
0.828672 0.584649 0.695705
0.000000 0.694697 0.698451
0.096803 0.696223 0.698634
0.458991 0.697292 0.696162
0.652247 0.697932 0.692103
0.824186 0.702510 0.693355
0.211185 0.855863 0.683803
0.314122 0.854063 0.687800
0.485969 0.850034 0.694179
0.647089 0.848173 0.691096
0.823941 0.845762 0.695064
0.000000 0.133242 0.874479
0.000000 0.148592 0.873930
0.332067 0.222629 0.870665
0.611994 0.347295 0.863615
0.826535 0.461067 0.856596
0.000000 0.267002 0.872435
0.000000 0.279057 0.870329
0.353155 0.328832 0.865141
0.618952 0.422705 0.860563
0.825956 0.505180 0.856382
0.000000 0.449042 0.867552
0.000000 0.456001 0.864897
0.434974 0.542840 0.860380
0.635828 0.572229 0.857847
0.824094 0.598779 0.855344
0.000000 0.669093 0.862119
0.124422 0.675257 0.861479
0.423560 0.687678 0.858000
0.630640 0.701503 0.854765
0.818784 0.713893 0.851499
0.219242 0.852873 0.855772
0.303044 0.852628 0.855161
0.463844 0.852506 0.853574
0.630152 0.852689 0.851713
0.812772 0.849668 0.848051
