tests/lcmsNET.Tests/Resources/Aqua.cube
# Created by Adobe Lightroom plugin Export LUT (1.18.0)
# www.johnrellis.com/lightroom/exportlut.htm
# Preset: Aqua
# Color profile: /Library/Application Support/Adobe/Color/Profiles/Recommended/AdobeRGB1998.icc
LUT_3D_SIZE 32
0.000000 0.000000 0.000000
0.000000 0.000000 0.000000
0.000000 0.000000 0.000000
0.000000 0.000000 0.000000
0.002502 0.000000 0.001068
0.046937 0.000000 0.000305
0.085115 0.000000 0.003143
0.117891 0.000000 0.007294
0.163790 0.000000 0.009216
0.218784 0.000000 0.011444
0.279026 0.000000 0.009125
0.340826 0.000000 0.003998
0.401556 0.000000 0.000000
0.457435 0.000000 0.000000
0.508019 0.000000 0.000000
0.552361 0.000000 0.000000
0.590387 0.000000 0.000000
0.622583 0.000000 0.000000
0.650111 0.000000 0.000000
0.674495 0.000000 0.000000
0.697078 0.000000 0.000000
0.718563 0.000000 0.000000
0.739651 0.000000 0.000000
0.760922 0.000000 0.000000
0.782742 0.000000 0.000000
0.805661 0.000000 0.000000
0.828702 0.063081 0.000000
0.851743 0.109895 0.000000
0.874357 0.142092 0.000000
0.897459 0.172824 0.065370
0.919341 0.201358 0.104738
0.939513 0.230289 0.142458
0.000000 0.000000 0.000000
0.000000 0.000000 0.000000
0.000000 0.000000 0.000000
0.000000 0.000000 0.000000
0.002502 0.000000 0.001068
0.042664 0.000000 0.001434
0.083162 0.000000 0.004303
0.115633 0.000000 0.006348
0.162264 0.000000 0.009369
0.217350 0.000000 0.011658
0.277317 0.000000 0.008362
0.339117 0.000000 0.004211
0.400397 0.000000 0.000000
0.456214 0.000000 0.000000
0.506889 0.000000 0.000000
0.551263 0.000000 0.000000
0.589319 0.000000 0.000000
0.621607 0.000000 0.000000
0.649165 0.000000 0.000000
0.673610 0.000000 0.000000
0.696254 0.000000 0.000000
0.717739 0.000000 0.000000
0.738888 0.000000 0.000000
0.760250 0.000000 0.000000
0.782040 0.000000 0.000000
0.804959 0.000000 0.000000
0.828153 0.072908 0.000000
0.851194 0.116152 0.000000
0.873899 0.146670 0.000000
0.897063 0.176028 0.064790
0.918914 0.204044 0.104616
0.939117 0.232486 0.141909
0.000000 0.000000 0.000000
0.000000 0.000000 0.000000
0.000000 0.000000 0.000000
0.000000 0.000000 0.000000
0.002502 0.000000 0.001068
0.041688 0.000000 0.000458
0.082063 0.000000 0.003296
0.114595 0.000000 0.006439
0.160891 0.000000 0.009522
0.215763 0.000000 0.011872
0.275853 0.000000 0.009613
0.337621 0.000000 0.003815
0.398749 0.000000 0.000000
0.454566 0.000000 0.000000
0.505211 0.000000 0.000000
0.549950 0.000000 0.000000
0.588220 0.000000 0.000000
0.620447 0.000000 0.000000
0.648066 0.000000 0.000000
0.672511 0.000000 0.000000
0.695247 0.000000 0.000000
0.716823 0.000000 0.000000
0.738033 0.000000 0.000000
0.759365 0.000000 0.000000
0.781216 0.000000 0.000000
0.804227 0.000000 0.000000
0.827420 0.086305 0.000000
0.850584 0.123537 0.000000
0.873350 0.152621 0.000000
0.896635 0.180728 0.065003
0.918578 0.207584 0.104555
0.938811 0.235599 0.142184
0.000000 0.000000 0.000000
0.000000 0.000000 0.000000
0.000000 0.000000 0.000000
0.000000 0.000000 0.000000
0.002502 0.000000 0.001068
0.038972 0.000000 0.000488
0.080903 0.000000 0.003326
0.113039 0.000000 0.006531
0.158602 0.000000 0.010834
0.213931 0.000000 0.010864
0.273838 0.000000 0.007782
0.336034 0.000000 0.004639
0.396765 0.000000 0.000000
0.452979 0.000000 0.000000
0.504112 0.000000 0.000000
0.549065 0.000000 0.000000
0.587457 0.000000 0.000000
0.619928 0.000000 0.000000
0.647608 0.000000 0.000000
0.672267 0.000000 0.000000
0.695186 0.000000 0.000000
0.716793 0.000000 0.000000
0.738125 0.000000 0.000000
0.759548 0.000000 0.000000
0.781582 0.000000 0.000000
0.804776 0.073060 0.000000
0.828183 0.113069 0.000000
0.851438 0.142458 0.000000
0.874266 0.167483 0.000000
0.897612 0.193423 0.067506
0.919615 0.218875 0.107729
0.939879 0.245823 0.145998
0.000000 0.000000 0.000000
0.000000 0.000000 0.000000
0.000000 0.000000 0.000000
0.000000 0.001190 0.000000
0.002014 0.003174 0.000763
0.038087 0.000000 0.001221
0.080354 0.000000 0.002960
0.111238 0.000000 0.007263
0.156130 0.000000 0.009003
0.210697 0.000000 0.009583
0.270634 0.000000 0.007752
0.332586 0.000000 0.000732
0.392798 0.000000 0.000000
0.448798 0.000000 0.000000
0.500359 0.000000 0.000000
0.545556 0.000000 0.000000
0.584497 0.000000 0.000000
0.617151 0.000000 0.000000
0.645289 0.000000 0.000000
0.670222 0.000000 0.000000
0.693385 0.000000 0.000000
0.715236 0.000000 0.000000
0.736629 0.000000 0.000000
0.758175 0.000000 0.000000
0.780240 0.078798 0.000000
0.803555 0.114656 0.000000
0.827054 0.140780 0.000000
0.850462 0.164004 0.000000
0.873381 0.185550 0.000000
0.896818 0.208255 0.067384
0.918914 0.231540 0.108125
0.939208 0.256657 0.146792
0.000000 0.016388 0.000824
0.000000 0.018799 0.000641
0.000000 0.021210 0.001526
0.000000 0.026978 0.001038
0.000000 0.035187 0.000366
0.032807 0.041382 0.002258
0.079988 0.031006 0.003967
0.110872 0.012909 0.007446
0.155367 0.000000 0.009766
0.209812 0.000000 0.009064
0.269566 0.000000 0.005280
0.330724 0.000000 0.000000
0.390661 0.000000 0.000000
0.446845 0.000000 0.000000
0.498268 0.000000 0.000000
0.543786 0.000000 0.000000
0.582818 0.000000 0.000000
0.615991 0.000000 0.000000
0.644739 0.000000 0.000000
0.670283 0.000000 0.000000
0.693996 0.000000 0.000000
0.717342 0.026184 0.000000
0.741787 0.093935 0.000000
0.763760 0.120790 0.000000
0.786374 0.142306 0.000000
0.809476 0.161471 0.000000
0.832578 0.179446 0.000000
0.856138 0.197391 0.000000
0.878965 0.215091 0.011200
0.901427 0.234257 0.080201
0.922484 0.254459 0.118410
0.941985 0.277134 0.156558
0.000000 0.067720 0.001709
0.000000 0.066835 0.001892
0.000000 0.066407 0.001984
0.000000 0.068147 0.002686
0.000000 0.070222 0.001129
0.017151 0.072206 0.003357
0.070649 0.073426 0.004303
0.103883 0.068299 0.007630
0.142947 0.061860 0.009674
0.193637 0.049409 0.010071
0.248722 0.018189 0.005798
0.307134 0.000000 0.000000
0.365057 0.000000 0.000000
0.420630 0.000000 0.000000
0.472450 0.000000 0.000000
0.521630 0.000000 0.000000
0.563500 0.000000 0.000000
0.598535 0.000000 0.000000
0.628809 0.000000 0.000000
0.658442 0.067079 0.000000
0.684688 0.097658 0.000000
0.708949 0.120729 0.000000
0.732174 0.140230 0.000000
0.756069 0.159213 0.000000
0.780331 0.175875 0.000000
0.805020 0.191501 0.000000
0.829740 0.207156 0.000000
0.853819 0.222263 0.000000
0.877195 0.237552 0.010590
0.899992 0.254337 0.081270
0.921294 0.272557 0.119875
0.940826 0.293339 0.158480
0.000000 0.095674 0.003510
0.000000 0.094850 0.003815
0.000000 0.094820 0.004883
0.000000 0.095369 0.004700
0.000000 0.097353 0.005127
0.012055 0.099641 0.003845
0.063905 0.101961 0.007813
0.101595 0.104280 0.009949
0.146731 0.106813 0.010803
0.197024 0.107942 0.006714
0.251652 0.109621 0.000000
0.309483 0.110689 0.000000
0.366796 0.111055 0.000000
0.422065 0.112490 0.000000
0.473396 0.115328 0.000000
0.521843 0.123171 0.000000
0.562799 0.131075 0.000000
0.597742 0.138308 0.000000
0.627955 0.146273 0.000000
0.657435 0.157809 0.000000
0.683650 0.169009 0.000000
0.707881 0.179782 0.000000
0.731228 0.190860 0.000000
0.755154 0.202762 0.000000
0.779355 0.214023 0.000000
0.804044 0.225925 0.000000
0.828611 0.237858 0.000000
0.852598 0.249821 0.000000
0.876158 0.262882 0.010559
0.898802 0.277195 0.083711
0.920073 0.293187 0.122713
0.939605 0.311772 0.160800
0.000000 0.134524 0.003326
0.000000 0.133394 0.004974
0.000000 0.133181 0.003967
0.000000 0.133394 0.004974
0.000000 0.135378 0.005005
0.006317 0.137942 0.004181
0.062989 0.141726 0.005768
0.102724 0.145327 0.006531
0.146914 0.149111 0.008453
0.201541 0.159091 0.000000
0.255772 0.166537 0.000000
0.312840 0.174502 0.000000
0.369482 0.181888 0.000000
0.423774 0.187961 0.000000
0.474342 0.193332 0.000000
0.521416 0.199496 0.000000
0.562005 0.203799 0.000000
0.596765 0.207187 0.000000
0.626886 0.209995 0.000000
0.656397 0.216037 0.000000
0.682612 0.222385 0.000000
0.706966 0.228153 0.000000
0.730465 0.235019 0.000000
0.754360 0.242802 0.000000
0.778561 0.251011 0.000000
0.803220 0.259892 0.000000
0.827756 0.269108 0.000000
0.851530 0.278630 0.000000
0.875151 0.289555 0.018250
0.897704 0.301640 0.087861
0.918853 0.315831 0.126284
0.938384 0.332341 0.164431
0.000000 0.188266 0.000000
0.000000 0.187137 0.000000
0.000000 0.186618 0.000000
0.000000 0.186770 0.000000
0.000000 0.188388 0.000000
0.000000 0.191012 0.000000
0.062165 0.194491 0.000000
0.109071 0.198550 0.000000
0.157412 0.203037 0.000000
0.207645 0.207736 0.000000
0.265690 0.221897 0.000000
0.322271 0.233158 0.000000
0.377966 0.243046 0.000000
0.431250 0.250767 0.000000
0.480507 0.256687 0.000000
0.526574 0.261479 0.000000
0.566247 0.264378 0.000000
0.600244 0.265629 0.000000
0.630060 0.266239 0.000000
0.658869 0.269047 0.000000
0.684871 0.271855 0.000000
0.709285 0.275395 0.000000
0.732967 0.279057 0.000000
0.756680 0.283879 0.000000
0.780728 0.289494 0.000000
0.805234 0.295903 0.000000
0.829526 0.302800 0.000000
0.853117 0.310552 0.000000
0.876310 0.319524 0.043183
0.898375 0.329625 0.096651
0.919127 0.341741 0.134127
0.938231 0.356298 0.171725
0.000000 0.244053 0.000000
0.000000 0.242954 0.000000
0.000000 0.242283 0.000000
0.000000 0.242374 0.000000
0.000000 0.243473 0.000000
0.000000 0.245579 0.000000
0.052155 0.248875 0.000000
0.112154 0.252903 0.000000
0.165225 0.257176 0.000000
0.219242 0.261723 0.000000
0.268589 0.267094 0.000000
0.326329 0.282170 0.000000
0.380865 0.293126 0.000000
0.432990 0.301579 0.000000
0.481300 0.307500 0.000000
0.526360 0.312291 0.000000
0.565454 0.313756 0.000000
0.599145 0.314092 0.000000
0.628779 0.313085 0.000000
0.657588 0.313481 0.000000
0.683589 0.314427 0.000000
0.708034 0.315618 0.000000
0.731746 0.317418 0.000000
0.755398 0.320134 0.000000
0.779446 0.323980 0.000000
0.803830 0.328466 0.000000
0.828092 0.333928 0.000000
0.851835 0.340154 0.000000
0.874846 0.347387 0.056672
0.896788 0.355840 0.101747
0.917418 0.366247 0.138827
0.936492 0.379187 0.176852
0.000000 0.304936 0.000000
0.000000 0.303868 0.000000
0.000000 0.303105 0.000000
0.000000 0.302525 0.000000
0.000000 0.303410 0.000000
0.000000 0.305119 0.000000
0.032013 0.307744 0.000000
0.115633 0.311925 0.000000
0.175051 0.315984 0.000000
0.232609 0.320775 0.000000
0.284459 0.325933 0.000000
0.334661 0.332921 0.000000
0.408392 0.363531 0.000000
0.459815 0.371832 0.000000
0.506126 0.376165 0.000000
0.546960 0.377020 0.000000
0.582574 0.375372 0.000000
0.614405 0.372930 0.000000
0.642420 0.369421 0.000000
0.668177 0.366430 0.000000
0.692195 0.363806 0.000000
0.715084 0.361669 0.000000
0.737697 0.360937 0.000000
0.760525 0.361364 0.000000
0.783902 0.362860 0.000000
0.806699 0.364660 0.000000
0.829953 0.367834 0.000000
0.853025 0.372351 0.000000
0.875486 0.377935 0.071778
0.896635 0.384588 0.112032
0.916747 0.393225 0.148013
0.935485 0.404273 0.184878
0.000000 0.346502 0.000000
0.000000 0.344427 0.000000
0.000000 0.342351 0.000000
0.000000 0.341436 0.000000
0.000000 0.341405 0.000000
0.000000 0.344244 0.000000
0.000000 0.347845 0.000000
0.105043 0.351568 0.000000
0.167819 0.355352 0.000000
0.230472 0.363348 0.000000
0.286595 0.371527 0.000000
0.339117 0.379980 0.000000
0.389715 0.388678 0.000000
0.446357 0.403662 0.000000
0.496254 0.412085 0.000000
0.539971 0.415717 0.000000
0.577935 0.415778 0.000000
0.610437 0.412909 0.000000
0.639368 0.409125 0.000000
0.665461 0.405249 0.000000
0.689815 0.401587 0.000000
0.712764 0.398383 0.000000
0.735500 0.396124 0.000000
0.758297 0.395087 0.000000
0.781704 0.395453 0.000000
0.804807 0.396460 0.000000
0.828214 0.398718 0.000000
0.851225 0.402014 0.000000
0.873716 0.406439 0.080964
0.894896 0.411963 0.119661
0.914977 0.419287 0.155642
0.933928 0.429450 0.192996
0.000000 0.406928 0.000000
0.000000 0.404547 0.000000
0.000000 0.402533 0.000000
0.000000 0.401099 0.000000
0.000000 0.400214 0.000000
0.000000 0.402167 0.000000
0.000000 0.404700 0.000000
0.106386 0.407294 0.000000
0.174197 0.410132 0.000000
0.238285 0.416724 0.000000
0.294316 0.423651 0.000000
0.346441 0.430457 0.000000
0.396063 0.437354 0.000000
0.444892 0.444800 0.000000
0.495918 0.454994 0.000000
0.539361 0.458259 0.000000
0.576684 0.457191 0.000000
0.608911 0.453559 0.000000
0.637385 0.448402 0.000000
0.663233 0.443061 0.000000
0.687404 0.438056 0.000000
0.710262 0.433722 0.000000
0.732967 0.430335 0.000000
0.755764 0.428229 0.000000
0.779294 0.427619 0.000000
0.802609 0.427771 0.000000
0.825986 0.429053 0.000000
0.848997 0.431312 0.018524
0.871458 0.434730 0.090059
0.892638 0.439246 0.127260
0.912932 0.445747 0.163088
0.932036 0.454719 0.201053
0.000000 0.461524 0.000000
0.000000 0.459083 0.000000
0.000000 0.456703 0.000000
0.000000 0.455177 0.000000
0.000000 0.454231 0.000000
0.000000 0.455787 0.000000
0.000000 0.457343 0.000000
0.106325 0.459113 0.000000
0.178897 0.461067 0.000000
0.243626 0.466346 0.000000
0.299138 0.471839 0.000000
0.350347 0.477302 0.000000
0.399176 0.482582 0.000000
0.446601 0.488319 0.000000
0.492714 0.493660 0.000000
0.538598 0.499397 0.000000
0.576165 0.498238 0.000000
0.607813 0.493172 0.000000
0.635737 0.486641 0.000000
0.661280 0.479988 0.000000
0.685176 0.473732 0.000000
0.708003 0.468360 0.000000
0.730556 0.463966 0.000000
0.753597 0.461128 0.000000
0.777249 0.459693 0.000000
0.800748 0.459174 0.000000
0.824277 0.459693 0.000000
0.847501 0.461341 0.056825
0.870085 0.464179 0.103243
0.891691 0.468299 0.140230
0.912566 0.474617 0.177096
0.931762 0.483162 0.215885
0.000000 0.514733 0.000000
0.000000 0.513085 0.000000
0.000000 0.511528 0.000000
0.000000 0.510460 0.000000
0.000000 0.509667 0.000000
0.000000 0.510887 0.000000
0.000000 0.512108 0.000000
0.112642 0.513420 0.000000
0.189548 0.514580 0.000000
0.252628 0.518456 0.000000
0.307134 0.522240 0.000000
0.357458 0.526024 0.000000
0.404883 0.529747 0.000000
0.450599 0.533257 0.000000
0.494850 0.536584 0.000000
0.538048 0.539788 0.000000
0.578790 0.541344 0.000000
0.609979 0.535119 0.000000
0.636896 0.526604 0.000000
0.661524 0.518242 0.000000
0.684749 0.510399 0.000000
0.707118 0.503502 0.000000
0.729641 0.498177 0.000000
0.752377 0.494270 0.000000
0.775540 0.491890 0.000000
0.798886 0.490364 0.000000
0.822171 0.489967 0.000000
0.845121 0.490669 0.074098
0.867460 0.492500 0.114351
0.889586 0.496284 0.151369
0.910369 0.501518 0.188083
0.929473 0.508904 0.225620
0.000000 0.555322 0.000000
0.000000 0.553948 0.000000
0.000000 0.552728 0.000000
0.000000 0.551812 0.000000
0.000000 0.551263 0.000000
0.000000 0.551843 0.000000
0.000000 0.552392 0.000000
0.113802 0.553124 0.000000
0.191257 0.553552 0.000000
0.252750 0.556298 0.000000
0.306249 0.559014 0.000000
0.355138 0.561730 0.000000
0.401312 0.564294 0.000000
0.445594 0.566674 0.000000
0.488350 0.568841 0.000000
0.529747 0.570947 0.000000
0.570520 0.572778 0.000000
0.607080 0.571374 0.000000
0.634760 0.562860 0.000000
0.659266 0.553338 0.000000
0.682490 0.544549 0.000000
0.705043 0.537041 0.000000
0.727413 0.530816 0.000000
0.749996 0.525963 0.000000
0.772976 0.522576 0.000000
0.796139 0.520409 0.000000
0.819303 0.519371 0.015961
0.842191 0.519371 0.089235
0.865080 0.520928 0.127962
0.887175 0.523919 0.163363
0.907897 0.528344 0.199039
0.926940 0.534661 0.236790
0.000000 0.592432 0.000000
0.000000 0.592432 0.000000
0.000000 0.589990 0.000000
0.000000 0.590692 0.000000
0.000000 0.591638 0.000000
0.000000 0.592523 0.000000
0.000000 0.593378 0.000000
0.126680 0.594842 0.000000
0.201602 0.596307 0.000000
0.259709 0.597467 0.000000
0.310643 0.598779 0.000000
0.357153 0.599725 0.000000
0.401221 0.600641 0.000000
0.443549 0.601465 0.000000
0.484504 0.602411 0.000000
0.523491 0.601953 0.000000
0.561578 0.601709 0.000000
0.598871 0.601404 0.000000
0.632593 0.598505 0.000000
0.657435 0.588342 0.000000
0.680232 0.578454 0.000000
0.702449 0.569512 0.000000
0.724453 0.561975 0.000000
0.746426 0.556054 0.000000
0.768978 0.551598 0.000000
0.791958 0.548730 0.000000
0.815122 0.547082 0.040070
0.838407 0.546868 0.100282
0.861051 0.547631 0.137789
0.882933 0.549554 0.171572
0.903624 0.552819 0.205844
0.922850 0.558160 0.242802
0.000000 0.613794 0.000000
0.000000 0.614496 0.000000
0.000000 0.615412 0.000000
0.000000 0.616724 0.000000
0.000000 0.618219 0.000000
0.000000 0.619806 0.000000
0.000000 0.621393 0.000000
0.128481 0.622675 0.000000
0.201053 0.623865 0.000000
0.256718 0.624903 0.000000
0.306249 0.625910 0.000000
0.351476 0.626429 0.000000
0.394476 0.626947 0.000000
0.435859 0.627344 0.000000
0.475532 0.627710 0.000000
0.513573 0.627131 0.000000
0.550591 0.626612 0.000000
0.587243 0.626215 0.000000
0.623102 0.625849 0.000000
0.655024 0.622217 0.000000
0.678218 0.611780 0.000000
0.700435 0.602136 0.000000
0.722591 0.593927 0.000000
0.744594 0.587243 0.000000
0.767086 0.582238 0.000000
0.790219 0.578729 0.000000
0.813565 0.576684 0.071046
0.836637 0.575860 0.115633
0.859159 0.576043 0.151247
0.880766 0.577417 0.186069
0.901335 0.579980 0.220218
0.920623 0.584619 0.256962
0.000000 0.643275 0.000000
0.000000 0.643824 0.000000
0.000000 0.644343 0.000000
0.000000 0.645350 0.000000
0.000000 0.646326 0.000000
0.000000 0.647364 0.000000
0.000000 0.648249 0.000000
0.134035 0.648859 0.000000
0.201419 0.649500 0.000000
0.254520 0.650019 0.000000
0.302190 0.650507 0.000000
0.346258 0.650629 0.000000
0.387915 0.650752 0.000000
0.427710 0.650782 0.000000
0.466621 0.650874 0.000000
0.503685 0.650385 0.000000
0.540154 0.649866 0.000000
0.575769 0.649226 0.000000
0.610803 0.648585 0.000000
0.644770 0.647517 0.000000
0.675532 0.643946 0.000000
0.697627 0.633600 0.000000
0.719753 0.624781 0.000000
0.742000 0.617426 0.000000
0.764858 0.611994 0.000000
0.788022 0.608026 0.000000
0.811185 0.605402 0.089387
0.834134 0.603815 0.128908
0.856565 0.603388 0.163729
0.878111 0.604028 0.197391
0.898741 0.606348 0.232975
0.917998 0.610559 0.271153
0.000000 0.669245 0.000000
0.000000 0.669642 0.000000
0.000000 0.670039 0.000000
0.000000 0.670710 0.000000
0.000000 0.671382 0.000000
0.000000 0.672023 0.000000
0.000000 0.672450 0.000000
0.139498 0.672816 0.000000
0.202487 0.673030 0.000000
0.253239 0.673182 0.000000
0.298985 0.673365 0.000000
0.341466 0.673487 0.000000
0.381964 0.673457 0.000000
0.420905 0.673487 0.000000
0.458686 0.673396 0.000000
0.495155 0.672999 0.000000
0.530999 0.672572 0.000000
0.566003 0.672175 0.000000
0.600610 0.671656 0.000000
0.634424 0.671077 0.000000
0.667811 0.670497 0.000000
0.698299 0.667750 0.000000
0.720485 0.658320 0.000000
0.743404 0.651087 0.000000
0.766690 0.645441 0.000000
0.790127 0.641169 0.072999
0.813321 0.637995 0.119448
0.836057 0.635981 0.155520
0.858122 0.634974 0.189029
0.879637 0.635492 0.223178
0.899901 0.637232 0.258427
0.918608 0.640833 0.296574
0.000000 0.698024 0.000000
0.000000 0.698482 0.000000
0.000000 0.699031 0.000000
0.000000 0.699336 0.000000
0.000000 0.699641 0.000000
0.000000 0.699886 0.000000
0.072145 0.700008 0.000000
0.154543 0.699702 0.000000
0.209751 0.699367 0.000000
0.256779 0.699001 0.000000
0.300114 0.698573 0.000000
0.340581 0.698024 0.000000
0.379278 0.697444 0.000000
0.416541 0.696864 0.000000
0.452857 0.696193 0.000000
0.488350 0.695460 0.000000
0.522911 0.694667 0.000000
0.557000 0.693874 0.000000
0.590387 0.693141 0.000000
0.623621 0.692439 0.000000
0.656489 0.692073 0.000000
0.689021 0.691676 0.000000
0.719173 0.689479 0.000000
0.740505 0.680201 0.000000
0.763729 0.674006 0.041413
0.787076 0.669184 0.098024
0.810300 0.665278 0.131533
0.833005 0.662745 0.167880
0.855467 0.661616 0.202029
0.876890 0.661402 0.235752
0.897032 0.662348 0.270512
0.915587 0.665034 0.308537
0.000000 0.720058 0.000000
0.000000 0.720516 0.000000
0.000000 0.721004 0.000000
0.000000 0.721187 0.000000
0.000000 0.721370 0.000000
0.000000 0.721431 0.000000
0.095125 0.721553 0.000000
0.162631 0.721187 0.000000
0.213474 0.720760 0.000000
0.258274 0.720272 0.000000
0.299321 0.719783 0.000000
0.337926 0.719173 0.000000
0.375250 0.718502 0.000000
0.411597 0.717769 0.000000
0.446845 0.717098 0.000000
0.481361 0.716396 0.000000
0.515312 0.715602 0.000000
0.548608 0.714870 0.000000
0.581689 0.714382 0.000000
0.614679 0.714168 0.000000
0.647089 0.713802 0.000000
0.679042 0.713466 0.000000
0.710536 0.713008 0.000000
0.740169 0.711208 0.029725
0.757015 0.698482 0.070100
0.780484 0.693263 0.110445
0.804288 0.689540 0.142702
0.827726 0.686824 0.173678
0.850278 0.685054 0.207156
0.872221 0.684657 0.242161
0.892790 0.685328 0.278019
0.911772 0.687495 0.316472
0.000000 0.742031 0.000000
0.000000 0.742550 0.000000
0.000000 0.743008 0.000000
0.000000 0.743496 0.000000
0.000000 0.743862 0.000000
0.000000 0.743587 0.000000
0.117281 0.743282 0.000000
0.173953 0.742885 0.000000
0.219852 0.742550 0.000000
0.261204 0.741695 0.000000
0.299962 0.740932 0.000000
0.337011 0.740108 0.000000
0.373053 0.739345 0.000000
0.407874 0.738460 0.000000
0.442115 0.737575 0.000000
0.475715 0.736843 0.000000
0.508904 0.736141 0.000000
0.541650 0.735531 0.000000
0.573907 0.734951 0.000000
0.605737 0.734279 0.000000
0.637201 0.733577 0.000000
0.668360 0.733089 0.022705
0.699184 0.732448 0.070619
0.729488 0.731685 0.092744
0.758480 0.730129 0.112764
0.778470 0.721279 0.137362
0.801907 0.716915 0.165255
0.824979 0.713405 0.192721
0.847349 0.710536 0.220462
0.869139 0.709377 0.253483
0.889860 0.709651 0.290410
0.909056 0.711330 0.329503
0.000000 0.763210 0.000000
0.000000 0.763729 0.000000
0.000000 0.764248 0.000000
0.000000 0.764736 0.000000
0.000000 0.765164 0.000000
0.072419 0.764981 0.000000
0.138308 0.764767 0.000000
0.186099 0.764523 0.000000
0.228061 0.764248 0.000000
0.266453 0.763516 0.000000
0.303319 0.762875 0.000000
0.338933 0.762264 0.000000
0.373663 0.761685 0.000000
0.407507 0.760952 0.000000
0.440772 0.760250 0.000000
0.473548 0.759548 0.000000
0.505974 0.758846 0.000000
0.537987 0.758267 0.000000
0.569574 0.757656 0.040711
0.600793 0.757015 0.074220
0.631617 0.756313 0.092500
0.662257 0.755734 0.110048
0.692866 0.755306 0.125246
0.722896 0.754879 0.141115
0.752529 0.754269 0.154818
0.781155 0.753048 0.169314
0.799405 0.743557 0.187686
0.822141 0.739345 0.212711
0.844480 0.736233 0.239567
0.866819 0.734798 0.270420
0.887572 0.734249 0.304997
0.906523 0.735012 0.343542
0.000000 0.785580 0.000000
0.000000 0.785977 0.000000
0.000000 0.786404 0.000000
0.000000 0.786770 0.000000
0.029175 0.787137 0.000000
0.113741 0.786984 0.000000
0.160159 0.786770 0.000000
0.200717 0.786557 0.000000
0.238621 0.786313 0.000000
0.274083 0.785672 0.000000
0.308751 0.785031 0.000000
0.342565 0.784360 0.000000
0.375921 0.783719 0.000000
0.408423 0.783017 0.031800
0.440803 0.782284 0.061158
0.472541 0.781582 0.076997
0.503960 0.780880 0.090852
0.535210 0.780240 0.104433
0.566125 0.779629 0.116274
0.596735 0.779049 0.129580
0.627253 0.778622 0.142672
0.657435 0.778195 0.154971
0.687251 0.777646 0.167544
0.716670 0.776944 0.179599
0.745480 0.776120 0.191470
0.774166 0.775357 0.202884
0.802090 0.774197 0.215030
0.819394 0.764767 0.232059
0.841306 0.760861 0.257053
0.863432 0.758846 0.287053
0.884184 0.757443 0.319158
0.903441 0.757229 0.354162
0.000000 0.808042 0.036530
0.000000 0.808469 0.047303
0.000000 0.808896 0.052888
0.063905 0.809262 0.062745
0.111238 0.809689 0.069947
0.150149 0.809842 0.074830
0.186252 0.809934 0.081483
0.221073 0.810056 0.089601
0.254978 0.810178 0.097566
0.288273 0.810117 0.105074
0.320897 0.810056 0.112337
0.353277 0.809934 0.120729
0.385168 0.809812 0.129488
0.416693 0.809293 0.136599
0.447791 0.808743 0.145144
0.478492 0.808194 0.152468
0.509361 0.807797 0.162356
0.540063 0.807523 0.172457
0.570428 0.807126 0.182498
0.600519 0.806699 0.192782
0.630182 0.806210 0.203067
0.659785 0.805783 0.214420
0.688930 0.805203 0.225254
0.717617 0.804440 0.235538
0.745815 0.803586 0.246342
0.774289 0.803220 0.258640
0.802213 0.802762 0.271000
0.829618 0.802060 0.283268
0.844999 0.791928 0.297154
0.865232 0.788052 0.323919
0.886015 0.786862 0.357641
0.904997 0.786648 0.394446
0.114443 0.835447 0.149020
0.120729 0.835355 0.148959
0.128634 0.835264 0.148867
0.144869 0.835142 0.149905
0.166842 0.834958 0.151644
0.191135 0.834592 0.152438
0.217929 0.834134 0.154055
0.245701 0.833707 0.156863
0.274357 0.833249 0.159579
0.303624 0.832761 0.163638
0.333227 0.832273 0.167666
0.362890 0.831815 0.172915
0.392920 0.831357 0.178622
0.422797 0.830930 0.185428
0.452735 0.830442 0.192020
0.482277 0.829923 0.199313
