tests/lcmsNET.Tests/Resources/Aqua.cube
# Created by Adobe Lightroom plugin Export LUT (1.18.0)
# www.johnrellis.com/lightroom/exportlut.htm
# Preset: Aqua
# Color profile: /Library/Application Support/Adobe/Color/Profiles/Recommended/AdobeRGB1998.icc
LUT_3D_SIZE 8
DOMAIN_MIN 0.000000 0.000000 0.000000
DOMAIN_MAX 0.903226 0.903226 0.903226
0.000000 0.000000 0.000000
0.002502 0.000000 0.001068
0.163790 0.000000 0.009216
0.401556 0.000000 0.000000
0.590387 0.000000 0.000000
0.697078 0.000000 0.000000
0.782742 0.000000 0.000000
0.874357 0.142092 0.000000
0.000000 0.000000 0.000000
0.002014 0.003174 0.000763
0.156130 0.000000 0.009003
0.392798 0.000000 0.000000
0.584497 0.000000 0.000000
0.693385 0.000000 0.000000
0.780240 0.078798 0.000000
0.873381 0.185550 0.000000
0.000000 0.134524 0.003326
0.000000 0.135378 0.005005
0.146914 0.149111 0.008453
0.369482 0.181888 0.000000
0.562005 0.203799 0.000000
0.682612 0.222385 0.000000
0.778561 0.251011 0.000000
0.875151 0.289555 0.018250
0.000000 0.346502 0.000000
0.000000 0.341405 0.000000
0.167819 0.355352 0.000000
0.389715 0.388678 0.000000
0.577935 0.415778 0.000000
0.689815 0.401587 0.000000
0.781704 0.395453 0.000000
0.873716 0.406439 0.080964
0.000000 0.555322 0.000000
0.000000 0.551263 0.000000
0.191257 0.553552 0.000000
0.401312 0.564294 0.000000
0.570520 0.572778 0.000000
0.682490 0.544549 0.000000
0.772976 0.522576 0.000000
0.865080 0.520928 0.127962
0.000000 0.669245 0.000000
0.000000 0.671382 0.000000
0.202487 0.673030 0.000000
0.381964 0.673457 0.000000
0.530999 0.672572 0.000000
0.667811 0.670497 0.000000
0.766690 0.645441 0.000000
0.858122 0.634974 0.189029
0.000000 0.763210 0.000000
0.000000 0.765164 0.000000
0.228061 0.764248 0.000000
0.373663 0.761685 0.000000
0.505974 0.758846 0.000000
0.631617 0.756313 0.092500
0.752529 0.754269 0.154818
0.844480 0.736233 0.239567
0.169192 0.856107 0.198520
0.204959 0.855680 0.200626
0.294957 0.854215 0.208499
0.404242 0.852659 0.226413
0.515770 0.849516 0.248325
0.629114 0.847684 0.283848
0.738918 0.845304 0.324437
0.843442 0.842618 0.369787
0.000000 0.000000 0.003265
0.000916 0.000000 0.002167
0.137270 0.000000 0.008789
0.366827 0.000000 0.000000
0.566491 0.000000 0.000000
0.683894 0.000000 0.000000
0.773922 0.000000 0.000000
0.868040 0.147494 0.021149
0.000000 0.000000 0.000000
0.002014 0.003174 0.000763
0.137179 0.000000 0.009644
0.365301 0.000000 0.000000
0.566064 0.000000 0.000000
0.683009 0.000000 0.000000
0.773190 0.109163 0.000000
0.867552 0.188632 0.026520
0.000000 0.122713 0.005768
0.000000 0.129549 0.010864
0.144930 0.144900 0.014496
0.364172 0.192538 0.000000
0.557549 0.221286 0.000000
0.678035 0.234897 0.000000
0.770596 0.253422 0.000000
0.866392 0.285985 0.060792
0.000000 0.343389 0.000000
0.000000 0.346075 0.000000
0.184817 0.360021 0.000000
0.385443 0.383062 0.000000
0.566186 0.408179 0.000000
0.679225 0.396155 0.000000
0.771756 0.390570 0.000000
0.866392 0.402777 0.103975
0.000000 0.548943 0.000000
0.000000 0.549950 0.000000
0.198306 0.553368 0.000000
0.397650 0.558129 0.000000
0.560845 0.562982 0.000000
0.674800 0.538231 0.000000
0.765499 0.517662 0.000000
0.859770 0.518334 0.151705
0.000000 0.667994 0.000000
0.000000 0.668971 0.000000
0.196902 0.669184 0.000000
0.377691 0.669154 0.000000
0.526787 0.668482 0.000000
0.663722 0.667048 0.000000
0.762295 0.642451 0.095430
0.853971 0.633204 0.213535
0.000000 0.762966 0.000000
0.000000 0.764157 0.000000
0.228092 0.763546 0.015625
0.374121 0.761501 0.076326
0.506493 0.759091 0.116243
0.632105 0.757046 0.158145
0.752895 0.755612 0.203861
0.844785 0.738674 0.275303
0.176425 0.853880 0.235172
0.211704 0.853788 0.238468
0.300114 0.852964 0.247440
0.407324 0.851591 0.263005
0.518853 0.849577 0.285252
0.630304 0.847471 0.315038
0.738582 0.844846 0.350164
0.842069 0.842283 0.390845
0.000000 0.000000 0.154788
0.000000 0.000000 0.147158
0.140505 0.000000 0.140139
0.373816 0.000000 0.175448
0.571893 0.000000 0.142489
0.685206 0.000000 0.132753
0.773312 0.000000 0.151766
0.866392 0.174380 0.193118
0.000000 0.001099 0.138521
0.000000 0.008972 0.141299
0.141451 0.000000 0.139315
0.372503 0.000000 0.166018
0.570764 0.000000 0.127321
0.683253 0.000000 0.133577
0.771756 0.121126 0.152682
0.864897 0.208164 0.195041
0.000000 0.139834 0.146639
0.000000 0.144839 0.145449
0.148257 0.156344 0.142214
0.372137 0.177340 0.136263
0.560876 0.204410 0.125948
0.677485 0.229282 0.134340
0.768765 0.259098 0.163516
0.863462 0.301823 0.212161
0.000000 0.349859 0.182925
0.000000 0.354070 0.178653
0.140261 0.373938 0.128573
0.390417 0.392340 0.126497
0.567163 0.404456 0.137484
0.677546 0.395972 0.161898
0.768551 0.397436 0.197024
0.862119 0.417700 0.248539
0.000000 0.549645 0.192966
0.000000 0.553155 0.182376
0.132784 0.560449 0.124422
0.385809 0.563287 0.131533
0.559777 0.566033 0.144259
0.671565 0.538598 0.178042
0.760342 0.523552 0.230686
0.853849 0.529870 0.284916
0.000000 0.669429 0.185855
0.000000 0.671717 0.178225
0.167330 0.672602 0.171756
0.369329 0.671382 0.184726
0.522728 0.669520 0.202976
0.659510 0.667536 0.227390
0.757443 0.645686 0.266911
0.848264 0.642512 0.335637
0.000000 0.763729 0.235966
0.000000 0.764462 0.245823
0.242588 0.763363 0.259770
0.381079 0.761318 0.269200
0.509331 0.759091 0.282780
0.631861 0.757351 0.302861
0.749081 0.756497 0.329656
0.840665 0.743374 0.375586
0.210819 0.853086 0.338720
0.251408 0.852323 0.349096
0.327733 0.851286 0.356817
0.426734 0.851102 0.370794
0.529808 0.849119 0.384497
0.635676 0.847349 0.404913
0.739528 0.845335 0.429480
0.839414 0.842985 0.456519
0.000000 0.000000 0.381323
0.000000 0.000000 0.380438
0.146700 0.000000 0.373663
0.371069 0.000000 0.378393
0.566491 0.000000 0.386572
0.681514 0.000000 0.350500
0.767239 0.179141 0.366979
0.857053 0.304936 0.407752
0.000000 0.036408 0.374029
0.000000 0.011933 0.379400
0.156741 0.000000 0.376165
0.372747 0.000000 0.379614
0.566613 0.000000 0.381567
0.679255 0.000000 0.351934
0.763455 0.231998 0.374640
0.855009 0.315312 0.403357
0.000000 0.210758 0.380896
0.000000 0.211978 0.380713
0.024018 0.165682 0.381659
0.376837 0.159701 0.382147
0.556695 0.181979 0.365576
0.669001 0.267002 0.368261
0.758358 0.332311 0.388922
0.853605 0.376959 0.411017
0.000000 0.382971 0.384375
0.000000 0.383551 0.382300
0.000000 0.393927 0.385779
0.377264 0.404913 0.383429
0.556023 0.419104 0.391730
0.665156 0.431373 0.399573
0.757382 0.448676 0.413550
0.851926 0.473426 0.435981
0.000000 0.562310 0.399237
0.000000 0.563806 0.395178
0.000000 0.569116 0.382238
0.371954 0.571466 0.383978
0.551598 0.572992 0.389746
0.658564 0.554528 0.409125
0.748745 0.553643 0.429358
0.843992 0.565942 0.453529
0.000000 0.672480 0.375067
0.000000 0.674128 0.373816
0.150973 0.674891 0.375830
0.381262 0.672145 0.400916
0.523949 0.671046 0.410224
0.651118 0.670283 0.421515
0.747372 0.657252 0.439948
0.838529 0.662165 0.479194
0.000000 0.763760 0.383368
0.000000 0.764767 0.389746
0.261143 0.762875 0.410101
0.409613 0.759091 0.437507
0.521111 0.757595 0.443091
0.632319 0.756619 0.451881
0.741299 0.756619 0.464363
0.833219 0.749111 0.486976
0.208225 0.852995 0.437324
0.249332 0.852506 0.444251
0.347784 0.849851 0.465248
0.447456 0.847318 0.483925
0.539818 0.845884 0.490394
0.638056 0.844846 0.500969
0.736721 0.843565 0.513909
0.833768 0.842161 0.529900
0.000000 0.000000 0.572717
0.000000 0.000000 0.571099
0.016022 0.000000 0.566949
0.358282 0.000000 0.567163
0.545769 0.000000 0.568444
0.666590 0.000000 0.523583
0.757351 0.214847 0.508537
0.845945 0.368902 0.541253
0.000000 0.039277 0.563622
0.000000 0.013825 0.566278
0.013397 0.000000 0.565270
0.352178 0.000000 0.563928
0.543420 0.000000 0.565820
0.664149 0.000000 0.522759
0.754177 0.259709 0.511925
0.843137 0.389288 0.544579
0.000000 0.243015 0.567895
0.000000 0.234226 0.567559
0.000000 0.177157 0.567254
0.334600 0.175265 0.565270
0.541131 0.195224 0.563531
0.657527 0.287419 0.528069
0.747433 0.381384 0.532891
0.839384 0.459968 0.564355
0.000000 0.406439 0.565515
0.000000 0.402838 0.564050
0.000000 0.395178 0.566278
0.343389 0.406531 0.568994
0.542809 0.430060 0.568383
0.649134 0.470771 0.554406
0.740902 0.509026 0.567437
0.838193 0.530907 0.578241
0.000000 0.564569 0.566491
0.000000 0.565850 0.566918
0.000000 0.569787 0.567559
0.358862 0.575586 0.568078
0.534478 0.575586 0.563745
0.639612 0.578912 0.566857
0.735073 0.585229 0.569726
0.834073 0.594873 0.575891
0.000000 0.679286 0.538720
0.000000 0.680201 0.539025
0.137453 0.679347 0.540429
0.386236 0.675319 0.551019
0.531029 0.672358 0.564599
0.641810 0.674159 0.567742
0.736873 0.673091 0.577844
0.831785 0.679408 0.589746
0.000000 0.767300 0.525353
0.000000 0.768002 0.529381
0.264347 0.765927 0.540154
0.418341 0.761379 0.558099
0.532647 0.758358 0.570184
0.633265 0.758846 0.572351
0.736172 0.760403 0.576654
0.829282 0.756680 0.585290
0.214633 0.854917 0.548821
0.253117 0.854215 0.552575
0.348455 0.852079 0.564813
0.449531 0.848417 0.577508
0.543511 0.846616 0.585382
0.638025 0.846311 0.590448
0.733944 0.845060 0.595605
0.830350 0.844053 0.603418
0.000000 0.000000 0.687495
0.000000 0.000000 0.688533
0.000000 0.000000 0.687495
0.301884 0.000000 0.685908
0.485298 0.000000 0.683772
0.649226 0.000000 0.679805
0.747097 0.260136 0.643763
0.839200 0.396735 0.649744
0.000000 0.058381 0.681727
0.000000 0.035218 0.684108
0.000000 0.000000 0.683131
0.292424 0.000000 0.681117
0.480781 0.000000 0.679133
0.645747 0.130861 0.676387
0.743557 0.293462 0.642817
0.836423 0.412726 0.649928
0.000000 0.244480 0.685573
0.000000 0.231357 0.684932
0.000000 0.207736 0.683375
0.278874 0.211460 0.675746
0.478126 0.244785 0.673640
0.640955 0.302464 0.672419
0.738643 0.399054 0.649775
0.833585 0.474556 0.659632
0.000000 0.389899 0.677516
0.000000 0.385351 0.675563
0.000000 0.385626 0.676081
0.325536 0.415839 0.676814
0.499702 0.442481 0.675898
0.639796 0.471595 0.673915
0.735164 0.515068 0.663416
0.831357 0.549371 0.671595
0.000000 0.531884 0.674311
0.000000 0.532433 0.674342
0.000000 0.536767 0.674311
0.350805 0.553368 0.673548
0.516808 0.574334 0.671199
0.632410 0.584283 0.669215
0.727138 0.599207 0.666621
0.826139 0.614099 0.673396
0.000000 0.667231 0.670710
0.000000 0.669306 0.672236
0.131014 0.671260 0.672633
0.377783 0.673304 0.672206
0.521752 0.674617 0.671290
0.629633 0.674647 0.668635
0.727504 0.678706 0.670710
0.826352 0.682673 0.671992
0.000000 0.767544 0.653742
0.000000 0.768521 0.656153
0.257816 0.766354 0.658991
0.407568 0.762112 0.662409
0.523369 0.759030 0.665126
0.622248 0.758907 0.663294
0.727382 0.760800 0.663813
0.823026 0.759640 0.670680
0.211093 0.855497 0.656947
0.248386 0.854856 0.658564
0.340154 0.852842 0.663539
0.440345 0.850340 0.669154
0.533593 0.848234 0.671260
0.625544 0.847807 0.669581
0.726040 0.846860 0.671992
0.825711 0.845640 0.675868
0.000000 0.000000 0.782315
0.000000 0.000000 0.782956
0.000000 0.000000 0.781643
0.241581 0.000000 0.780850
0.437446 0.105867 0.778317
0.597192 0.209689 0.774685
0.736660 0.306981 0.770291
0.832639 0.428931 0.755917
0.000000 0.091768 0.778561
0.000000 0.091157 0.780087
0.000000 0.089509 0.779416
0.238956 0.111788 0.778378
0.437232 0.170047 0.775692
0.596918 0.250980 0.772702
0.734646 0.335302 0.768521
0.830686 0.442756 0.755276
0.000000 0.247623 0.781949
0.000000 0.245548 0.781735
0.000000 0.252262 0.779080
0.255711 0.271336 0.775051
0.446937 0.308598 0.771481
0.600458 0.363348 0.769009
0.732845 0.423102 0.767697
0.829129 0.495583 0.758785
0.000000 0.384924 0.775937
0.000000 0.384070 0.774258
0.000000 0.396460 0.773434
0.327520 0.441321 0.772488
0.482551 0.467414 0.771206
0.613916 0.495613 0.769589
0.732052 0.522911 0.768307
0.827817 0.560204 0.762539
0.000000 0.518883 0.773037
0.000000 0.520378 0.772457
0.000000 0.529534 0.771328
0.343175 0.551904 0.769833
0.505974 0.581384 0.767453
0.617792 0.591455 0.765988
0.727077 0.601190 0.764584
0.823209 0.620294 0.760464
0.000000 0.644831 0.768002
0.000000 0.647303 0.768856
0.166171 0.653193 0.768551
0.370703 0.662806 0.767758
0.505791 0.671626 0.766751
0.616602 0.676692 0.765957
0.726101 0.681819 0.764675
0.821836 0.693721 0.762844
0.000000 0.763119 0.767178
0.000000 0.764523 0.768276
0.260868 0.765042 0.767880
0.398505 0.764614 0.766110
0.512016 0.764279 0.764126
0.612390 0.765011 0.762478
0.718654 0.763668 0.758816
0.817166 0.765347 0.760250
0.207736 0.857115 0.762112
0.243473 0.856626 0.762448
0.328344 0.854398 0.762173
0.427070 0.852171 0.762417
0.520226 0.850309 0.761288
0.613428 0.849485 0.758938
0.715511 0.847318 0.757931
0.818112 0.846281 0.758816
0.000000 0.133242 0.874479
0.000000 0.137850 0.874693
0.000000 0.154788 0.873625
0.221347 0.194675 0.872129
0.421942 0.254704 0.868772
0.576898 0.328466 0.864805
0.709987 0.401434 0.860227
0.826535 0.461067 0.856596
0.000000 0.174960 0.871763
0.000000 0.180911 0.872374
0.000000 0.196902 0.871427
0.228153 0.231693 0.869657
0.425422 0.286015 0.866758
0.579400 0.355047 0.863615
0.710750 0.420783 0.859586
0.825467 0.472969 0.855741
0.000000 0.293248 0.872374
0.000000 0.303777 0.871397
0.000000 0.317937 0.868925
0.272251 0.344305 0.866575
0.446418 0.383795 0.863676
0.589044 0.432105 0.860746
0.714168 0.479805 0.858640
0.825498 0.516930 0.856077
0.000000 0.384527 0.867826
0.000000 0.389746 0.866667
0.000000 0.424994 0.865110
0.347173 0.479225 0.863218
0.483467 0.503227 0.861814
0.605249 0.528466 0.859922
0.717861 0.551934 0.857877
0.824674 0.570214 0.855711
0.000000 0.512688 0.865507
0.000000 0.515129 0.865141
0.000000 0.525536 0.863828
0.308202 0.546838 0.862211
0.501518 0.595300 0.858793
0.608606 0.605127 0.856840
0.715267 0.615595 0.855100
0.821866 0.626612 0.853513
0.000000 0.636652 0.861479
0.000000 0.639582 0.861784
0.148226 0.646815 0.861021
0.345953 0.657130 0.859495
0.480110 0.666285 0.857816
0.606134 0.681270 0.856138
0.713710 0.688533 0.854795
0.820615 0.696773 0.852995
0.000000 0.753048 0.859129
0.100404 0.754635 0.859434
0.258396 0.757046 0.858518
0.383673 0.759457 0.856687
0.492439 0.760891 0.854643
0.593713 0.760616 0.853239
0.709071 0.766110 0.850645
0.815091 0.772183 0.848905
0.219242 0.852873 0.855772
0.247929 0.852720 0.855558
0.324804 0.852659 0.854948
0.418219 0.852506 0.854093
0.509239 0.852598 0.853147
0.604303 0.852750 0.852079
0.711147 0.852232 0.850584
0.812772 0.849668 0.848051
